X:14896
T:Says Plato. JC.191
T:Plato's Advice,aka. JC.191
M:C
L:1/8
Q:120
S:John Clare,Poet,Helpstone (1793-1864)
R:Air
O:England
A:Northamptonshire
N:
N:No TS given: 2/4 adde
Z:P Headford
K:G
G2|{c}B2AG{e}d2cB|{ef}g2fe{e}d3e|{e}d2cBc3B|A3d{c}B4|!
A2Add3^c|defga3g|fed^cB2F2|G2A2d4|!
(de/=f/) ed{d}c3B|((3cBA) dc{c}B3B|e3d{d}c3B|Aed{B}A{G}F3e|!
d3FG3e|dcBAB3{ef}g|fed^cd3e/=f/|
edcBc3B|!AGFED2zd|g3c BA/B/ {e}c {B}A|G2A>GG2|]
W:Song text exists. See Deacon.
